Numix/32/mimetypes/application-octet-stream.svg

<?xml version="1.0" encoding="UTF-8" standalone="no"?>
<svg
   xmlns:dc="http://purl.org/dc/elements/1.1/"
   xmlns:cc="http://creativecommons.org/ns#"
   xmlns:rdf="http://www.w3.org/1999/02/22-rdf-syntax-ns#"
   xmlns:svg="http://www.w3.org/2000/svg"
   xmlns="http://www.w3.org/2000/svg"
   xmlns:sodipodi="http://sodipodi.sourceforge.net/DTD/sodipodi-0.dtd"
   xmlns:inkscape="http://www.inkscape.org/namespaces/inkscape"
   width="32"
   height="32"
   viewBox="0 0 32 32"
   id="svg2"
   version="1.1"
   inkscape:version="0.91 r13725"
   sodipodi:docname="application-octet-stream.svg">
  <metadata
     id="metadata36">
    <rdf:RDF>
      <cc:Work
         rdf:about="">
        <dc:format>image/svg+xml</dc:format>
        <dc:type
           rdf:resource="http://purl.org/dc/dcmitype/StillImage" />
      </cc:Work>
    </rdf:RDF>
  </metadata>
  <defs
     id="defs34" />
  <sodipodi:namedview
     pagecolor="#ffffff"
     bordercolor="#666666"
     borderopacity="1"
     objecttolerance="10"
     gridtolerance="10"
     guidetolerance="10"
     inkscape:pageopacity="0"
     inkscape:pageshadow="2"
     inkscape:window-width="1920"
     inkscape:window-height="1013"
     id="namedview32"
     showgrid="true"
     inkscape:zoom="10.429825"
     inkscape:cx="-21.494098"
     inkscape:cy="17.54819"
     inkscape:window-x="0"
     inkscape:window-y="27"
     inkscape:window-maximized="1"
     inkscape:current-layer="svg2">
    <inkscape:grid
       type="xygrid"
       id="grid3024" />
  </sodipodi:namedview>
  <path
     style="fill:#dcdcdc;fill-opacity:1"
     d="M 5.335888,2.972e-4 C 4.648414,3.122e-4 4,0.6767881 4,1.3940314 L 4,30.606268 C 4,31.282757 4.687474,32 5.335888,32 l 21.327332,0 c 0.648414,0 1.335888,-0.717243 1.335888,-1.393732 L 28,8.9999999 l -9,-9 z"
     id="path4-1"
     inkscape:connector-curvature="0"
     sodipodi:nodetypes="ssssssccs" />
  <path
     style="fill:#000000;fill-opacity:0.19599998"
     d="M 21,8.9999999 28,16 28,8.9999999 z"
     id="path6-4"
     inkscape:connector-curvature="0"
     sodipodi:nodetypes="cccc" />
  <path
     style="fill:#ffffff;fill-opacity:0.39200003"
     d="m 19.000306,2.972e-4 8.991594,8.9997027 -7.613262,0 c -0.672951,0 -1.378332,-0.7134896 -1.378332,-1.3864402 z"
     id="path8-6"
     inkscape:connector-curvature="0"
     sodipodi:nodetypes="ccssc" />
  <path
     style="fill:#555555;fill-opacity:1;fill-rule:evenodd;stroke:none"
     d="M 10 11 L 10 12 L 11 12 L 11 15 L 12 15 L 12 11 L 11 11 L 10 11 z M 10 16 L 10 17 L 11 17 L 11 20 L 12 20 L 12 17 L 12 16 L 10 16 z M 13 16 L 13 20 L 14 20 L 15 20 L 16 20 L 16 16 L 15 16 L 14 16 L 13 16 z M 14 17 L 15 17 L 15 19 L 14 19 L 14 17 z M 10 21 L 10 22 L 11 22 L 11 25 L 12 25 L 12 22 L 12 21 L 10 21 z M 13 21 L 13 25 L 14 25 L 15 25 L 16 25 L 16 21 L 15 21 L 14 21 L 13 21 z M 17 21 L 17 22 L 18 22 L 18 25 L 19 25 L 19 22 L 19 21 L 17 21 z M 14 22 L 15 22 L 15 24 L 14 24 L 14 22 z "
     id="rect3026" />
</svg>

<svg xmlns="http://www.w3.org/2000/svg" viewBox="0 0 32 32">
 <path d="m 5.336 0 c -0.687 0 -1.336 0.676 -1.336 1.394 l 0 29.21 c 0 0.676 0.687 1.394 1.336 1.394 l 21.327 0 c 0.648 0 1.336 -0.717 1.336 -1.394 l 0.001 -21.606 l -9 -9 z" style="fill:#dcdcdc;fill-opacity:1"/>
 <path d="m 21 9 7 7 0 -7 z" style="fill:#000;fill-opacity:0.196"/>
 <path d="m 19 0 8.992 9 -7.613 0 c -0.673 0 -1.378 -0.713 -1.378 -1.386 z" style="fill:#fff;fill-opacity:0.392"/>
 <path d="m 10 11 l 0 1 l 1 0 l 0 3 l 1 0 l 0 -4 l -1 0 l -1 0 z m 0 5 l 0 1 l 1 0 l 0 3 l 1 0 l 0 -3 l 0 -1 l -2 0 z m 3 0 l 0 4 l 1 0 l 1 0 l 1 0 l 0 -4 l -1 0 l -1 0 l -1 0 z m 1 1 l 1 0 l 0 2 l -1 0 l 0 -2 z m -4 4 l 0 1 l 1 0 l 0 3 l 1 0 l 0 -3 l 0 -1 l -2 0 z m 3 0 l 0 4 l 1 0 l 1 0 l 1 0 l 0 -4 l -1 0 l -1 0 l -1 0 z m 4 0 l 0 1 l 1 0 l 0 3 l 1 0 l 0 -3 l 0 -1 l -2 0 z m -3 1 l 1 0 l 0 2 l -1 0 l 0 -2 z" style="fill:#555;fill-opacity:1;stroke:none;fill-rule:evenodd"/>
</svg>
